!!!COM: Anonymous
!!!CDT: fl. XVI c.
!!!OTL: Pyesn o posiedzeniu y o zniewoleniu zalosnem Ziemie Węgierskiey
!!!TXO: Polish
!!!ODT: ~1550
!!!voices: 4
!!!pag:
!!!EFL:
!!!YEM: Creative Commons CC/BY/NC/SA 4.0
!!!ENC: Marcin Konik
!!!END: 2014-10-01
!!!EED: Marcin Konik
!!!EEV:
!!!ONB: Encoded in vim by Marcin Konik
!!!CharacterEncoding: utf-8
!!!RDF**kern: l=long note in original notation
!!!RDF**kern: i=editorial accidental
!!!RDF**kern: > = above
!!!RDF**kern: < = below
!!muse2ps: z14jc180F
!!title: @{CDT}, @{OTL}, ed. @{ENC}
**kern	**kern	**kern	**kern
*part4	*part3	*part2	*part1
*staff4	*staff3	*staff2	*staff1
*clefF4	*clefF4	*clefGv2	*clefG2
*k[]	*k[]	*k[]	*k[]
*M2/1	*M2/1	*M2/1	*M2/1
=1-	=1-	=1-	=1-
2A	2A	2A	2a
2F	2A	2c	2a
1D	1A	1d	1f
=2	=2	=2	=2
2E	2G	2c	2e
1D	1A	1d	2f
.	.	.	2g
2AA	2c	[2e	[2a
=3	=3	=3	=3
1E	1B	2e]	2a]
.	.	2e	2g#
1AA	1A	1c	1a
=4	=4	=4	=4
2AA	2A	2c	2e
2C	2G	2c	2e
1D	1F	1A	2f
.	.	.	2d
=5	=5	=5	=5
2C	2E	2c	2e
1BB-	1D	2.d	2.f
.	.	.	.
.	.	4c	4e
2D	2F	2B	[2d
=6	=6	=6	=6
1AA	1E	2.A	2d]
.	.	.	2c#
.	.	4G	.
1A	1D	1F	1d
=7	=7	=7	=7
1D	1A	1d	1f
1G	1B	1d	1g
=8	=8	=8	=8
2.F	1c	2.f	2.a
4C	.	4e	4g
2D	2A	2d	2f
2E	2G	2c	2e
=9	=9	=9	=9
2D	2A	2d	2f
2AA	2c	1e	1a
1E	1B	.	.
.	.	2e	2g#
=10	=10	=10	=10
1AA	1A	1c	1a
2.C	2.E	2c	2.g
.	.	[2c	.
4D	4F	.	4f
=11	=11	=11	=11
2E	2G	2c]	2e
4D	2A	4B	2f
4F	.	4c	.
2E	2B	1e	2g
2AA	2c	.	2a
=12	=12	=12	=12
2E	2B	2e	2g
2F	2A	2d	1a
1E	1B	1e	.
.	.	.	2g#
=13	=13	=13	=13
0AA	0A	0e	0a
==	==	==	==
*-	*-	*-	*-
